recipes/guilded/icon.svg

<svg height="1024" viewBox="0 0 136 129" width="1024" xmlns="http://www.w3.org/2000/svg"><path d="m47.8903288 48.2641509s.0599998 8.5394717 4.4447801 17.3713585c4.5047799 8.501434 10.715952 13.9622264 15.8399291 16.1375095 5.2943763-2.4748302 10.4087534-6.770717 13.1999409-11.399434h-14.5343349c-3.7607832-3.116717-6.7199699-8.2874717-7.3991669-14.2641509h42.6382089c-2.1023904 9.609283-6.5639704 18.3484528-10.8143514 23.913849-5.8994592 7.716636-13.8988515 13.6060002-23.0590967 16.976717h-.1343994c-15.2927316-6.0931698-23.5198947-15.690566-28.9486704-26.519434-3.4823844-6.9395094-7.1231681-19.5395094-7.1231681-36.480566h72c.011637 4.7709414-.309125 9.5370029-.960318 14.2641509z" fill="#111820"/></svg>

<?xml version="1.0" encoding="UTF-8"?>
<svg width="1024px" height="1024px" viewBox="0 0 136 129" version="1.1" xmlns="http://www.w3.org/2000/svg" xmlns:xlink="http://www.w3.org/1999/xlink">
    <!-- Generator: Sketch 56.2 (81672) - https://sketch.com -->
    <title>Logomark / Guilded-Wordmark-Black</title>
    <desc>Created with Sketch.</desc>
    <g id="Logomark-/-Guilded-Wordmark-Black" stroke="none" stroke-width="1" fill="none" fill-rule="evenodd">
        <path d="M47.8903288,48.2641509 C47.8903288,48.2641509 47.9503286,56.8036226 52.3351089,65.6355094 C56.8398888,74.1369434 63.0510609,79.5977358 68.175038,81.7730189 C73.4694143,79.2981887 78.5837914,75.0023019 81.3749789,70.3735849 L66.840644,70.3735849 C63.0798608,67.2568679 60.1206741,62.0861132 59.4414771,56.109434 L102.079686,56.109434 C99.9772956,65.718717 95.5157156,74.4578868 91.2653346,80.023283 C85.3658754,87.739919 77.3664831,93.6292832 68.2062379,97 L68.0718385,97 C52.7791069,90.9068302 44.5519438,81.309434 39.1231681,70.480566 C35.6407837,63.5410566 32,50.9410566 32,34 L104,34 C104.011637,38.7709414 103.690875,43.5370029 103.039682,48.2641509 L47.8903288,48.2641509 Z" id="Path" fill="#111820" fill-rule="nonzero"></path>
    </g>
</svg>
